src/22/mimetypes/image-gif.svg

<?xml version="1.0" encoding="UTF-8" standalone="no"?>

<!-- Created with Inkscape (http://www.inkscape.org/) -->
<svg width="22" version="1.1" xmlns="http://www.w3.org/2000/svg" height="22" xmlns:inkscape="http://www.inkscape.org/namespaces/inkscape">
 <defs id="defs3871"/>
 <metadata id="metadata3874"/>
 <g inkscape:label="Capa 1" inkscape:groupmode="layer" id="layer1" transform="matrix(1 0 0 1 -326 -534.3622)">
  <rect width="0" x="326.49567" y="535.98694" height="10.999983" style="fill:#f27935" id="rect4035"/>
  <rect width="0" x="321.94366" y="538.50604" height="10.999983" style="fill:#f27935" id="rect4035-7"/>
  <rect width="0" x="317.43588" y="526.08746" height="10.999983" style="fill:#f27935" id="rect4035-9"/>
  <rect width="0" x="318.27991" y="538.32489" height="10.999983" style="fill:#f27935" id="rect4035-96"/>
  <rect width="0" x="313.72791" y="540.84399" height="10.999983" style="fill:#f27935" id="rect4035-7-0"/>
  <rect width="0" x="309.22012" y="528.42542" height="10.999983" style="fill:#f27935" id="rect4035-9-6"/>
  <path style="fill:#32cab4;stroke-width:2" id="rect5669" d="M 3 3 L 3 15 L 1 17 L 3 17 L 3 19 L 19 19 L 19 17 L 21 17 L 19 14.714844 L 19 3 L 3 3 z M 4 4 L 9 4 L 10 4 L 11 4 L 14.539062 4 L 18 4 L 18 13.572266 L 14 9 L 10 13 L 9.5 13.5 L 9 13 L 7 11 L 4 14 L 4 4 z M 7 5 A 2 2 0 0 0 5 7 A 2 2 0 0 0 7 9 A 2 2 0 0 0 9 7 A 2 2 0 0 0 7 5 z M 13.951172 10.462891 L 19 16 L 12 16 L 11 15 L 10.207031 14.207031 L 11 13.416016 L 11 13.414062 L 13.951172 10.462891 z M 7 12.414062 L 9 14.414062 L 9 14.416016 L 10.583984 16 L 9 16 L 3.4140625 16 L 7 12.414062 z M 4 17 L 9 17 L 11 17 L 18 17 L 18 18 L 4 18 L 4 17 z " transform="matrix(1 0 0 1 326 534.3622)"/>
 </g>
</svg>

<svg width="22" xmlns="http://www.w3.org/2000/svg" height="22"><path d="M3 3v12l-2 2h2v2h16v-2h2l-2-2.285V3H3zm1 1h14v9.572L14 9l-4 4-.5.5L9 13l-2-2-3 3V4zm3 1a2 2 0 0 0-2 2 2 2 0 0 0 2 2 2 2 0 0 0 2-2 2 2 0 0 0-2-2zm6.951 5.463L19 16h-7l-1-1-.793-.793.793-.791v-.002l2.951-2.951zM7 12.414l2 2v.002L10.584 16h-7.17L7 12.414zM4 17h14v1H4v-1z" fill="#32cab4" stroke-width="2"/></svg>
